packages/web-icons/svgs/book_1.svg

<svg viewBox="0 0 63 49" xmlns="http://www.w3.org/2000/svg" class="ridi_icon"><path d="M61 42.4s-5.6-.1-8.2-.1c-5.4 0-14 .6-15.3 5.8h-2.8V8.9c3.1-7.4 8.5-7.8 14.6-8.8h10.2c1.9 0 3.4 1.6 3.4 3.4v37c.2 1-.7 1.9-1.9 1.9zm-58.2 0s5.6-.1 8.2-.1c5.4 0 14 .6 15.3 5.8h2.8V8.9C25.9 1.5 20.5 1.1 14.4 0H4.2C2.3 0 .8 1.6.8 3.4v37c0 1.1 1 2 2 2z"/></svg>

<?xml version="1.0" encoding="UTF-8"?>
<svg width="63px" height="49px" viewBox="0 0 63 49" version="1.1" xmlns="http://www.w3.org/2000/svg">
  <!-- Generator: Sketch 41.2 (35397) - http://www.bohemiancoding.com/sketch -->
  <title>book_1</title>
  <desc>Created with Sketch.</desc>
  <defs></defs>
  <g id="Page-1" stroke="none" stroke-width="1" fill="none" fill-rule="evenodd">
    <g id="book_1" fill="#000000">
      <g id="레이어_1">
        <path d="M61,42.4 C61,42.4 55.4,42.3 52.8,42.3 C47.4,42.3 38.8,42.9 37.5,48.1 L34.7,48.1 L34.7,8.9 C37.8,1.5 43.2,1.1 49.3,0.1 L59.5,0.1 C61.4,0.1 62.9,1.7 62.9,3.5 L62.9,40.5 C63.1,41.5 62.2,42.4 61,42.4 Z" id="Shape"></path>
        <path d="M2.8,42.4 C2.8,42.4 8.4,42.3 11,42.3 C16.4,42.3 25,42.9 26.3,48.1 L29.1,48.1 L29.1,8.9 C25.9,1.5 20.5,1.1 14.4,0 L4.2,0 C2.3,0 0.8,1.6 0.8,3.4 L0.8,40.4 C0.8,41.5 1.8,42.4 2.8,42.4 Z" id="Shape"></path>
      </g>
    </g>
  </g>
</svg>
